components/icon/svg/24/av_volume-off.svg

<?xml version="1.0" encoding="UTF-8"?>
<svg width="24px" height="24px" viewBox="0 0 24 24" version="1.1" xmlns="http://www.w3.org/2000/svg" xmlns:xlink="http://www.w3.org/1999/xlink">
    <!-- Generator: Sketch 64 (93537) - https://sketch.com -->
    <title>ic-db_av_volume-off_24</title>
    <desc>Created with Sketch.</desc>
    <g id="Symbols:Icon" stroke="none" stroke-width="1" fill="none" fill-rule="evenodd">
        <g id="24dp-Icon/AV/Volume-Off" fill="#282D37">
            <path d="M19.2477,3.75 C19.764,3.75 20.1863,4.1724 20.1863,4.6886 C20.1863,4.9937 20.0456,5.2284 19.8578,5.4161 L19.8578,5.4161 L5.0037,20.2233 C4.8629,20.3641 4.6048,20.4814 4.3701,20.4814 C3.8538,20.4814 3.4314,20.0356 3.4314,19.5193 C3.4314,19.2377 3.5488,19.003 3.76,18.7919 L3.76,18.7919 L6.3882,16.1402 L6.177,15.9994 L4.4874,15.9994 C3.1029,15.9994 2,14.8965 2,13.5119 L2,13.5119 L2,10.5317 C2,9.1238 3.1029,8.0443 4.4874,8.0443 L4.4874,8.0443 L6.177,8.0443 L10.4244,5.2049 C10.5887,5.0876 10.7998,5.0406 10.9876,5.0406 C11.5508,5.0406 11.9732,5.5099 11.9732,6.0497 L11.9732,6.0497 L11.9732,10.5787 L13.7331,8.8422 C13.5689,8.6544 13.475,8.4198 13.475,8.1851 C13.475,7.6454 13.9209,7.223 14.4371,7.223 C14.6951,7.223 14.9768,7.3872 15.0942,7.4811 L15.0942,7.4811 L16.1971,6.3782 L15.8686,6.167 C15.5635,5.9793 15.3758,5.6507 15.3758,5.3222 C15.3758,4.7825 15.8216,4.3836 16.3379,4.3836 C16.5021,4.3836 16.6664,4.407 16.8072,4.5009 C17.0653,4.6652 17.3235,4.8294 17.5816,4.9937 L17.5816,4.9937 L18.5906,4.0081 C18.7784,3.8204 18.9896,3.75 19.2477,3.75 Z M9.9785,7.9035 L7.0452,9.8512 C6.881,9.9685 6.6698,10.0389 6.4821,10.0389 L6.4821,10.0389 L4.4874,10.0389 C4.2058,10.0389 3.9946,10.2501 3.9946,10.5083 L3.9946,10.5083 L3.9946,13.5119 C3.9946,13.7701 4.2058,14.0047 4.4874,14.0047 L4.4874,14.0047 L6.4821,14.0047 C6.6698,14.0047 6.881,14.0751 7.0452,14.1925 L7.0452,14.1925 L7.8196,14.7087 L9.9785,12.5733 L9.9785,7.9035 Z M9.6265,18.3225 L10.4244,18.8622 C10.5652,18.9796 10.7998,19.0265 10.9876,19.0265 C11.5508,19.0265 11.9732,18.5807 11.9732,18.0175 L11.9732,15.9759 L9.6265,18.3225 Z M15.3523,12.6437 C15.188,13.6058 14.6952,14.4506 13.8974,15.0138 C13.6393,15.2015 13.475,15.5066 13.475,15.8116 C13.475,16.3279 13.8974,16.7738 14.4371,16.7738 C14.6248,16.7738 14.8126,16.7034 14.9768,16.6095 C16.5021,15.577 17.3235,13.817 17.3235,11.9866 C17.3235,11.5642 17.2765,11.1653 17.2061,10.7664 L15.3523,12.6437 Z M20.0925,7.9035 C20.7495,9.1472 21.125,10.5552 21.125,12.0101 C21.125,15.0842 19.4824,17.9471 16.8072,19.4958 C16.6664,19.5897 16.5021,19.6366 16.3379,19.6366 C15.8216,19.6366 15.3758,19.1908 15.3758,18.6745 C15.3758,18.346 15.5635,18.0175 15.8686,17.8532 C17.9336,16.633 19.2242,14.4037 19.2242,12.0101 C19.2242,11.0715 19.0365,10.1563 18.661,9.3115 L20.0925,7.9035 Z" id="🎨-Color"></path>
        </g>
    </g>
</svg>

<svg width="24" height="24" xmlns="http://www.w3.org/2000/svg"><path d="M19.248 3.75c.516 0 .938.422.938.939 0 .305-.14.54-.328.727L5.004 20.223a.97.97 0 01-.634.258c-.516 0-.939-.445-.939-.962 0-.281.118-.516.329-.727l2.628-2.652-.211-.14h-1.69A2.474 2.474 0 012 13.511v-2.98a2.46 2.46 0 012.487-2.488h1.69l4.247-2.84a.985.985 0 01.564-.163c.563 0 .985.469.985 1.009v4.529l1.76-1.737a1.009 1.009 0 01-.258-.657c0-.54.446-.962.962-.962.258 0 .54.164.657.258l1.103-1.103-.328-.211a1.015 1.015 0 01-.493-.845c0-.54.446-.938.962-.938.164 0 .328.023.47.117l.774.493 1.009-.986a.867.867 0 01.657-.258zm-9.27 4.154L7.046 9.85a1.011 1.011 0 01-.563.188H4.487a.476.476 0 00-.492.47v3.003c0 .258.21.493.492.493h1.995c.188 0 .399.07.563.188l.775.516 2.159-2.136v-4.67zm-.351 10.419l.797.54c.141.117.376.163.564.163.563 0 .985-.445.985-1.009v-2.041l-2.347 2.347zm5.725-5.68c-.164.963-.657 1.808-1.455 2.37a1.013 1.013 0 00-.422.799c0 .516.422.962.962.962.188 0 .376-.07.54-.165 1.525-1.032 2.346-2.792 2.346-4.622 0-.423-.047-.822-.117-1.22l-1.854 1.877zm4.74-4.74a8.807 8.807 0 011.033 4.107 8.66 8.66 0 01-4.318 7.486.846.846 0 01-.47.14.982.982 0 01-.961-.962c0-.328.188-.657.493-.82 2.065-1.221 3.355-3.45 3.355-5.844 0-.938-.188-1.854-.563-2.698l1.431-1.408z" fill="#282D37" fill-rule="evenodd"/></svg>
